X:1
T:The Banks of the Gasperaux
M:6/8
L:1/8
K:C
 C| E2 A A2 G| G2 EE-D C|G,-A, B, C2 C| C3- C2 E| G2 EG-A B| c2 c B2 A|\
 G2 E E2 E| A3- G E2| G2 EG-A B| c2 c B2 A| G2 E E2 E| A3- G z E| E2 A A2 A|\
 G2 EE-D C|G,-A, B, C2 C| C3- C2||
